X: 23
T: Drunken-man Dance Song (a)
C: Anon.
%%abc-version 2.0
%%abcx-abcm2ps-target-version 5.9.1 (29 Sep 2008)
%%abc-creator hum2abc beta
%%abcx-conversion-date 2020/08/10 20:56:09
%%abc-copyright Electronic Copyright 2000 David Huron
%%abc-edited-by David Huron
%%abcx-initial-encoding-date August 27, 2000
%%humdrum-veritas 1523451788
%%humdrum-veritas-data 999639649
%%linebreak <none>
%%barnumbers 0
L: 1/8
M: 2/4
Q: 1/4=112
K: G clef=bass
B,2B, A, | 
A, G,G,2 | 
B,3A, | 
G,4[M:3/4] | 
B,2G, A, (3G, E, E,[M:2/4] | 
G,2G, G, | 
B,2A, A, | 
A, G,z2[M:3/4] | 
G,2G, A, (3G, E, E, | 
G,2G, G,z2 | 
G,2G, A, G,3/ E,/ | 
G,2G, G,z2 | 
B,2G, A, (3G, G, G, | 
B,3A, | 
G,4[M:3/4] | 
B,2G, A, (3G, E, E,[M:2/4] | 
G,2G, G, | 
B,2A, A, | 
A, G,z2[M:3/4] | 
G,2G, A, (3G, E, E, | 
G,2G, G,z2 |]  


